X:1
T:Title
%%score { 1 | 2 }
L:1/8
M:4/4
K:Ab
V:1 treble nm="Grand Piano"
V:2 bass 
V:1
 z4 z2[Q:1/4=100] [A,CE][A,DF] | [CEA]2 [CEA]2 [CEA]2 [CEA]2 | [Ec]2 [Ec]4 [Ec][EB] | %3
 [FA]2 [FA]2 F2 A2 |[M:3/4] E6 |[M:1/4] [CE][CE] |[M:4/4] [CEA]2 [CEA]2 [A,EA]2 B2 | c2 e4 fe | %8
 c2 c2 A2 [DGB]2 | [CA]6 z2 | e3 e f>e c>[GB] | A2 [GB]2 c4 | e3 f e2 [Ec]2 | %13
[M:9/8] [EA]2 [Ec]- [Ec] [EB]2- [EB][CE][CE] |[M:4/4] [CEA][CEA][A,EA]B c2 [Ec][EB] | %15
 [FA][FA]FA E4 | e3 f ec[EGB][=DA] |[M:7/8] [EAc]2 [DGB]2 [CA]3 |] %18
V:2
 z4 z2 A,,A,, | A,,2 A,,2 A,,2 A,,2 | [A,,A,]2 [A,,A,]4 [A,,A,][C,A,] | %3
 [D,D]2 [D,D]2 [D,A,D]2 [F,A,D]2 |[M:3/4] [A,C]6 |[M:1/4] [A,,A,][A,,A,] | %6
[M:4/4] A,,2 A,,2 C,2 [E,G,E]2 | [A,E]2 [A,CA]4 [A,DA][A,CA] | [A,E]2[K:bass] [A,E]2 [E,CE]2 E,2 | %9
 A,,6 z2 | [A,CA]3 [A,CA] [A,DA]>[A,CA] [A,EA]>[K:bass][E,E] | [F,C]2 [E,E]2[K:treble] [A,EA]4 | %12
 [A,CA]3 [A,DA] [A,CA]2[K:bass] [A,,A,]2 | %13
[M:9/8] [C,A,]2 [A,,A,]- [A,,A,] [E,G,]2- [E,G,][A,,A,][A,,A,] | %14
[M:4/4] A,,A,,C,[E,G,E] [A,E]2 [A,,A,][C,A,] | [D,D][D,D][D,A,D][F,A,D][K:treble] [A,C]4 | %16
 [A,CA]3 [A,DA] [A,CA][A,EA][K:bass]E,F, |[M:7/8] E,2 E,2 A,,3 |] %18

